design/logos/iespes_logo.svg

<svg width="512" height="145" viewBox="0 0 512 145" fill="none" xmlns="http://www.w3.org/2000/svg">
<path d="M452.48 89.6H427.52C429.44 117.76 448 122.88 468.48 122.88C489.576 122.88 510.929 117.12 512 90.88C512 57.6 458.24 67.84 455.04 51.2C453.48 43.0889 468.48 42.24 476.16 44.16C481.92 46.72 481.92 49.28 485.12 52.48C487.68 57.6 509.44 56.32 509.44 56.32C507.52 33.28 489.6 24.32 468.48 24.32C449.583 24.32 431.36 32.64 430.08 53.76C430.08 53.76 428.8 72.96 449.28 79.36C464 85.76 486.4 83.2 486.4 95.36C485.76 101.12 478.193 103.943 471.04 103.68C461.948 103.346 453.76 101.12 452.48 89.6Z" fill="#347144"/>
<path fill-rule="evenodd" clip-rule="evenodd" d="M382.721 122.857C417.5 121.842 422.4 91.8186 422.4 91.8186C392.961 87.9388 402.561 98.9317 381.441 101.518C363.523 101.518 363 80.0001 363 80.0001H422.4V71.0001C422.4 53.0001 409.521 25.5001 381.441 25.5001C353.361 25.5001 341.273 46.2262 340 71.0001C338.641 97.4539 352.5 123.739 382.721 122.857ZM381.44 45.4826C366.936 45.4826 364.229 58.8087 364 63.0001H400C399.481 58.8087 395.944 45.4826 381.44 45.4826Z" fill="#347144"/>
<path fill-rule="evenodd" clip-rule="evenodd" d="M296.32 122.88C273.5 122.88 269.44 108.8 269.44 108.8V131.84C269.44 138.909 263.709 144.64 256.64 144.64H246C246 144.64 246.019 115.174 246 80.0001C245.978 38.0001 258.061 25.5 288.031 25.5001C318 25.5001 332.326 43.0001 332.5 73.6074C332.637 97.7476 320.461 122.88 296.32 122.88ZM289.92 101.12C276.471 101.12 269.349 93.4999 269.349 73.5C269.349 54.0001 275.061 45.598 288.031 45.598C301 45.598 309.103 54.0001 309.103 73.6C309.103 93.2 303 101.12 289.92 101.12Z" fill="#347144"/>
<path d="M181.12 89.6H156.16C158.08 117.76 176.64 122.88 197.12 122.88C218.216 122.88 239.569 117.12 240.64 90.88C240.64 57.6 186.88 67.84 183.68 51.2C182.12 43.0889 197.12 42.24 204.8 44.16C210.56 46.72 210.56 49.28 213.76 52.48C216.32 57.6 238.08 56.32 238.08 56.32C236.16 33.28 218.24 24.32 197.12 24.32C178.223 24.32 160 32.64 158.72 53.76C158.72 53.76 157.44 72.96 177.92 79.36C192.64 85.76 215.04 83.2 215.04 95.36C214.4 101.12 206.833 103.943 199.68 103.68C190.588 103.346 182.4 101.12 181.12 89.6Z" fill="#347144"/>
<path d="M160 66.5601C154.88 100.48 133.12 128 90.88 126.72C119.68 122.88 133.12 94.7201 135.68 80.6401C136.611 75.5201 137.233 72.513 140.8 69.1201C146.281 63.907 160 66.5601 160 66.5601Z" fill="#347144"/>
<path d="M60.8 87.04C62.1531 92.0054 63.9082 94.6039 67.2 98.56C71.5487 103.786 74.9873 106.226 81.28 108.8C98.56 115.87 118.4 108.8 126.08 101.76C126.08 101.76 112.64 124.729 88.32 126.08C55.04 122.24 40.96 100.48 42.24 74.24C46.72 26.24 88.32 24.32 88.32 24.32C88.32 24.32 131.2 22.4 122.88 67.84C120.32 55.04 117.372 50.9594 108.8 45.44C88.102 32.1135 52.4284 56.32 60.8 87.04Z" fill="#A0C655"/>
<path d="M88.32 87.04C81.6951 92.1769 76.3149 95.5782 68.48 98.56C71.68 102.4 76.16 105.6 81.92 108.16C88.96 106.24 91.2211 104.473 96.64 101.12C100.594 98.6739 102.82 97.2288 106.24 94.08C108.974 91.5635 110.357 89.9712 112.64 87.04C114.855 84.1963 117.76 79.36 117.76 79.36C117.76 79.36 120.96 72.96 122.24 69.12C120.96 60.16 117.76 51.2 108.8 46.72C108.8 51.2 108.753 54.0101 107.52 58.88C106.037 64.7352 104.359 67.862 101.12 72.96C97.1348 79.2322 94.1925 82.4865 88.32 87.04Z" fill="#347144"/>
<path d="M48 104.32C40.32 106.24 36.48 106.24 25.6 104.96C34.56 124.16 45.8592 119.04 58.24 115.84C53.76 112.64 50.56 108.16 48 104.32Z" fill="#347144"/>
<path d="M0 26.88V122.88H24.32V36.864C24.32 31.35 19.85 26.88 14.336 26.88H0Z" fill="#347144"/>
<path d="M0 19.2V0H14.336C19.85 0 24.32 4.46999 24.32 9.984V19.2H0Z" fill="#347144"/>
</svg>

<svg width="512" height="145" fill="none" xmlns="http://www.w3.org/2000/svg"><path d="M452.48 89.6h-24.96c1.92 28.16 20.48 33.28 40.96 33.28 21.096 0 42.449-5.76 43.52-32 0-33.28-53.76-23.04-56.96-39.68-1.56-8.111 13.44-8.96 21.12-7.04 5.76 2.56 5.76 5.12 8.96 8.32 2.56 5.12 24.32 3.84 24.32 3.84-1.92-23.04-19.84-32-40.96-32-18.897 0-37.12 8.32-38.4 29.44 0 0-1.28 19.2 19.2 25.6 14.72 6.4 37.12 3.84 37.12 16-.64 5.76-8.207 8.583-15.36 8.32-9.092-.334-17.28-2.56-18.56-14.08Z" fill="#347144"/><path fill-rule="evenodd" clip-rule="evenodd" d="M382.721 122.857C417.5 121.842 422.4 91.819 422.4 91.819c-29.439-3.88-19.839 7.113-40.959 9.699C363.523 101.518 363 80 363 80h59.4v-9c0-18-12.879-45.5-40.959-45.5-28.08 0-40.168 20.726-41.441 45.5-1.359 26.454 12.5 52.739 42.721 51.857Zm-1.281-77.374c-14.504 0-17.211 13.326-17.44 17.517h36c-.519-4.191-4.056-17.517-18.56-17.517ZM296.32 122.88c-22.82 0-26.88-14.08-26.88-14.08v23.04c0 7.069-5.731 12.8-12.8 12.8H246s.019-29.466 0-64.64c-.022-42 12.061-54.5 42.031-54.5C318 25.5 332.326 43 332.5 73.607c.137 24.14-12.039 49.273-36.18 49.273Zm-6.4-21.76c-13.449 0-20.571-7.62-20.571-27.62 0-19.5 5.712-27.902 18.682-27.902C301 45.598 309.103 54 309.103 73.6S303 101.12 289.92 101.12Z" fill="#347144"/><path d="M181.12 89.6h-24.96c1.92 28.16 20.48 33.28 40.96 33.28 21.096 0 42.449-5.76 43.52-32 0-33.28-53.76-23.04-56.96-39.68-1.56-8.111 13.44-8.96 21.12-7.04 5.76 2.56 5.76 5.12 8.96 8.32 2.56 5.12 24.32 3.84 24.32 3.84-1.92-23.04-19.84-32-40.96-32-18.897 0-37.12 8.32-38.4 29.44 0 0-1.28 19.2 19.2 25.6 14.72 6.4 37.12 3.84 37.12 16-.64 5.76-8.207 8.583-15.36 8.32-9.092-.334-17.28-2.56-18.56-14.08Z" fill="#347144"/><path d="M160 66.56c-5.12 33.92-26.88 61.44-69.12 60.16 28.8-3.84 42.24-32 44.8-46.08.931-5.12 1.553-8.127 5.12-11.52 5.481-5.213 19.2-2.56 19.2-2.56Z" fill="#347144"/><path d="M60.8 87.04c1.353 4.965 3.108 7.564 6.4 11.52 4.349 5.226 7.787 7.666 14.08 10.24 17.28 7.07 37.12 0 44.8-7.04 0 0-13.44 22.969-37.76 24.32-33.28-3.84-47.36-25.6-46.08-51.84 4.48-48 46.08-49.92 46.08-49.92s42.88-1.92 34.56 43.52c-2.56-12.8-5.508-16.88-14.08-22.4-20.698-13.326-56.372 10.88-48 41.6Z" fill="#A0C655"/><path d="M88.32 87.04c-6.625 5.137-12.005 8.538-19.84 11.52 3.2 3.84 7.68 7.04 13.44 9.6 7.04-1.92 9.301-3.687 14.72-7.04 3.954-2.446 6.18-3.891 9.6-7.04 2.734-2.516 4.117-4.109 6.4-7.04 2.215-2.844 5.12-7.68 5.12-7.68s3.2-6.4 4.48-10.24c-1.28-8.96-4.48-17.92-13.44-22.4 0 4.48-.047 7.29-1.28 12.16-1.483 5.855-3.161 8.982-6.4 14.08-3.985 6.272-6.928 9.527-12.8 14.08ZM48 104.32c-7.68 1.92-11.52 1.92-22.4.64 8.96 19.2 20.26 14.08 32.64 10.88-4.48-3.2-7.68-7.68-10.24-11.52ZM0 26.88v96h24.32V36.864c0-5.514-4.47-9.984-9.984-9.984H0ZM0 19.2V0h14.336c5.514 0 9.984 4.47 9.984 9.984V19.2H0Z" fill="#347144"/></svg>
